X:198
T:Bonnie Anne
R:reel
D:The Magic Square: Traditional Irish Music from Boston
Z:transcribed by Dave Marshall
M:C|
K:D
|: f2ed cAAB | cAdB cAA2 | f2ed cAAB | cAGE EDD2 |
f2ed cAAB | cAdB cAGE | D2 (3EFG Acdc | ABGE EDD2 :|
|: A~d3 defg | a2fa gfec | dAFA defd | ~=c3G EFGB |
A~d3 defg | a2fa g2fg | afge dfed |1 cAGE DEFG :|2 cAGE EDD2 ||
